X:13
T:Cameron Highlanders, The
R:barndance
C:James Scott Skinner (1843-1927)
H:Originally a march in four parts
Z:id:hn-barndance-13
M:C|
L:1/8
K:D
AF | D2FA D2FA | B2AF ~A3F | D2FA D2FA | GAFG E2FE |
D2FA D2FA | B2AF Adcd | B3A FAEA | FDDC D2 :|
|: FA | BdBA FAEA | FDDC D2FA | B2BA FADE | FEED E2FA |
B2BA FAEA | FDDC D2FA | B2BA FAEA | FDDC D2 :|

